cursors/src/svg/openhand.svg

<?xml version="1.0" encoding="UTF-8" standalone="no"?>
<svg
   xmlns:dc="http://purl.org/dc/elements/1.1/"
   xmlns:cc="http://creativecommons.org/ns#"
   xmlns:rdf="http://www.w3.org/1999/02/22-rdf-syntax-ns#"
   xmlns:svg="http://www.w3.org/2000/svg"
   xmlns="http://www.w3.org/2000/svg"
   xmlns:sodipodi="http://sodipodi.sourceforge.net/DTD/sodipodi-0.dtd"
   xmlns:inkscape="http://www.inkscape.org/namespaces/inkscape"
   width="32"
   height="32"
   version="1.1"
   viewBox="0 0 32 32"
   id="svg17"
   sodipodi:docname="openhand.svg"
   inkscape:version="0.92.4 5da689c313, 2019-01-14">
  <metadata
     id="metadata21">
    <rdf:RDF>
      <cc:Work
         rdf:about="">
        <dc:format>image/svg+xml</dc:format>
        <dc:type
           rdf:resource="http://purl.org/dc/dcmitype/StillImage" />
      </cc:Work>
    </rdf:RDF>
  </metadata>
  <sodipodi:namedview
     pagecolor="#ffffff"
     bordercolor="#666666"
     borderopacity="1"
     objecttolerance="10"
     gridtolerance="10"
     guidetolerance="10"
     inkscape:pageopacity="0"
     inkscape:pageshadow="2"
     inkscape:window-width="1366"
     inkscape:window-height="696"
     id="namedview19"
     showgrid="false"
     inkscape:zoom="7.375"
     inkscape:cx="-1.1525424"
     inkscape:cy="16"
     inkscape:window-x="0"
     inkscape:window-y="36"
     inkscape:window-maximized="1"
     inkscape:current-layer="svg17" />
  <defs
     id="defs5">
    <filter
       id="a"
       x="-.12206"
       y="-.11801"
       width="1.2441"
       height="1.236"
       color-interpolation-filters="sRGB">
      <feGaussianBlur
         stdDeviation="0.88573407"
         id="feGaussianBlur2" />
    </filter>
  </defs>
  <path
     inkscape:connector-curvature="0"
     id="path7"
     style="color:#000000;text-indent:0;text-decoration:none;text-decoration-line:none;text-decoration-style:solid;text-decoration-color:#000000;text-transform:none;white-space:normal;opacity:0.35;isolation:auto;mix-blend-mode:normal;solid-color:#000000;filter:url(#a);color-rendering:auto;image-rendering:auto;shape-rendering:auto;enable-background:new"
     d="m 17,6.06 c -1.0907,0 -2,0.9093 -2,2 V 8.47992 C 14.69108,8.28328 14.38722,8.06 14,8.06 c -1.0907,0 -2,0.9093 -2,2 v 7.1719 l -0.57617,-0.57618 c -0.37625,-0.38678 -0.89406,-0.60543 -1.4336,-0.60547 h -0.002 c -0.63753,0.001 -1.2385,0.30851 -1.6133,0.82422 l 0.10156,-0.11914 -0.59766,0.59766 c -0.39112,0.3913 -0.39022,1.0258 0.002,1.416 l 0.6582,0.65625 c 0.01883,0.0199 0.03653,0.0391 0.05664,0.0586 l 3.6973,3.6973 0.2793,0.2793 c 0.45724,0.47539 1.1228,0.69542 1.7734,0.58594 l -0.16601,0.0137 h 8.8203 c 1.0912,0 2.0447,-0.90241 2,-2.0391 v -10.961 c 0,-1.0907 -0.9093,-2 -2,-2 -0.38722,0 -0.69108,0.22328 -1,0.41992 V 9.05998 c 0,-1.0907 -0.9093,-2 -2,-2 -0.46752,0 -0.8635,0.231 -1.207,0.50781 C 18.62381,6.99271 18.25778,6.59544 17.71286,6.35879 17.52488,6.16766 17.26805,6.06 16.99997,6.05996 Z" />
  <path
     style="fill:none;stroke:#ffffff;stroke-width:2;stroke-linecap:round;stroke-linejoin:round;enable-background:new"
     inkscape:connector-curvature="0"
     id="path9"
     d="m 16,6.06 c -0.554,0 -1,0.446 -1,1 v 6 h -1 v -4 c 0,-0.554 -0.446,-1 -1,-1 -0.554,0 -1,0.446 -1,1 v 9.5859 L 9.707,16.3529 C 9.51873,16.15936 9.2602,16.05018 8.9902,16.05016 8.67096,16.05091 8.37125,16.20403 8.18356,16.46227 l -0.59765,0.59766 0.6582,0.65625 c 0.0157,0.0175 0.0319,0.0344 0.0488,0.0508 l 4,4 c 0.22904,0.23813 0.56089,0.3478 0.88672,0.29297 h 7.8203 c 2,0 2,-2 2,-2 v -10 c 0,-0.554 -0.446,-1 -1,-1 -0.554,0 -1,0.446 -1,1 v 3 h -1 v -5 c 0,-0.554 -0.446,-1 -1,-1 -0.554,0 -1,0.446 -1,1 v 5 h -1 v -6 c 0,-0.554 -0.446,-1 -1,-1 z" />
  <path
     style="fill:#282A33;enable-background:new"
     inkscape:connector-curvature="0"
     id="path11"
     d="m 16,6.06 c -0.554,0 -1,0.446 -1,1 v 6 h -1 v -4 c 0,-0.554 -0.446,-1 -1,-1 -0.554,0 -1,0.446 -1,1 v 9.5859 L 9.707,16.3529 C 9.51873,16.15936 9.2602,16.05018 8.9902,16.05016 8.67096,16.05091 8.37125,16.20403 8.18356,16.46227 l -0.59765,0.59766 0.6582,0.65625 c 0.0157,0.0175 0.0319,0.0344 0.0488,0.0508 l 4,4 c 0.22904,0.23813 0.56089,0.3478 0.88672,0.29297 h 7.8203 c 2,0 2,-2 2,-2 v -10 c 0,-0.554 -0.446,-1 -1,-1 -0.554,0 -1,0.446 -1,1 v 3 h -1 v -5 c 0,-0.554 -0.446,-1 -1,-1 -0.554,0 -1,0.446 -1,1 v 5 h -1 v -6 c 0,-0.554 -0.446,-1 -1,-1 z" />
  <rect
     style="opacity:0.2;fill:none"
     id="rect13"
     height="24"
     width="24"
     y="4.0599999"
     x="4" />
</svg>

<?xml version="1.0" encoding="UTF-8" standalone="no"?>
<!DOCTYPE svg PUBLIC "-//W3C//DTD SVG 1.1//EN" "http://www.w3.org/Graphics/SVG/1.1/DTD/svg11.dtd">
<svg width="100%" height="100%" viewBox="0 0 32 32" version="1.1" xmlns="http://www.w3.org/2000/svg" xmlns:xlink="http://www.w3.org/1999/xlink" xml:space="preserve" xmlns:serif="http://www.serif.com/" style="fill-rule:evenodd;clip-rule:evenodd;stroke-linecap:round;stroke-linejoin:round;">
    <use id="path7" xlink:href="#_Image1" x="4.929" y="3.403" width="23px" height="24px"/>
    <path id="path9" d="M16,6.06C15.446,6.06 15,6.506 15,7.06L15,13.06L14,13.06L14,9.06C14,8.506 13.554,8.06 13,8.06C12.446,8.06 12,8.506 12,9.06L12,18.646L9.707,16.353C9.519,16.159 9.26,16.05 8.99,16.05C8.671,16.051 8.371,16.204 8.184,16.462L7.586,17.06L8.244,17.716C8.26,17.734 8.276,17.751 8.293,17.767L12.293,21.767C12.522,22.005 12.854,22.115 13.18,22.06L21,22.06C23,22.06 23,20.06 23,20.06L23,10.06C23,9.506 22.554,9.06 22,9.06C21.446,9.06 21,9.506 21,10.06L21,13.06L20,13.06L20,8.06C20,7.506 19.554,7.06 19,7.06C18.446,7.06 18,7.506 18,8.06L18,13.06L17,13.06L17,7.06C17,6.506 16.554,6.06 16,6.06L16,6.06Z" style="fill:none;fill-rule:nonzero;stroke:white;stroke-width:2px;"/>
    <path id="path11" d="M16,6.06C15.446,6.06 15,6.506 15,7.06L15,13.06L14,13.06L14,9.06C14,8.506 13.554,8.06 13,8.06C12.446,8.06 12,8.506 12,9.06L12,18.646L9.707,16.353C9.519,16.159 9.26,16.05 8.99,16.05C8.671,16.051 8.371,16.204 8.184,16.462L7.586,17.06L8.244,17.716C8.26,17.734 8.276,17.751 8.293,17.767L12.293,21.767C12.522,22.005 12.854,22.115 13.18,22.06L21,22.06C23,22.06 23,20.06 23,20.06L23,10.06C23,9.506 22.554,9.06 22,9.06C21.446,9.06 21,9.506 21,10.06L21,13.06L20,13.06L20,8.06C20,7.506 19.554,7.06 19,7.06C18.446,7.06 18,7.506 18,8.06L18,13.06L17,13.06L17,7.06C17,6.506 16.554,6.06 16,6.06L16,6.06Z" style="fill-rule:nonzero;"/>
    <rect id="rect13" x="4" y="4.06" width="24" height="24" style="fill:none;"/>
    <defs>
        <image id="_Image1" width="23px" height="24px" xlink:href="data:image/png;base64,iVBORw0KGgoAAAANSUhEUgAAABcAAAAYCAYAAAARfGZ1AAAACXBIWXMAAA7EAAAOxAGVKw4bAAABi0lEQVRIiaWVcXOCMAzFf2AR3By37ft/TZ04gf3Bi6a1ILrc5ej1mpeXNH0UrLNC7m2ULwatAd44BxjkvUtyl2gJ3NgGoAIaYKu9HvgFzsBFbgkfghvbANTAG7BXglLgHXBy3ml/sCo2KaqAS7F8B1rgE/jSeg/sXCUhIXlt0Rx4ENsW+Bbwh/YaVVMLvBJOKVBjPoaFltRi2Qq41r6xrORbt7YEPTDkwNGhIJbGtErKt/bZFJVMF/sjv8wxt8DSBaaXXxDPvyexMYZzlgYvnUsrKIAiJIeKzKFnLCIT3KbNtX8wluQlsxm16WiYZtgeTf1iBXfgDdPYtQLfydNH8hQ4YlcJbO9YB+LZfsp8P+1l+f4H/tEW/6LOwFHeMT2IRb1+ZMGBn4jH0GzNpQ6JR9oyMOnz0QWYCPXcdCOXYGSqsuOm74Mx90DnmSAvWjl5NU05cNP1SBV9Ar8+ktdtH2dtPejbA2PusGmFvVYDnhtJI2K/vWtrln5zXhkfXagliC50jeLl1nMJ/Jc/mP9xDsAj3gUAAAAASUVORK5CYII="/>
    </defs>
</svg>
